public/MB--ComboCircle--Blue.svg

<svg fill="none" height="50" viewBox="0 0 218 50" width="218" xmlns="http://www.w3.org/2000/svg"><path d="m84.31 14.6333v21.5334h-5.3517v-10.7984l-4.7816 7.3784v.0316h-2.9767v-.0316l-4.8133-7.4417.0316 10.8617h-5.3516v-21.5334h3.9583l7.6633 11.495 7.6317-11.495zm19.918 6.175v15.3584h-5.1297v-.855c-1.14.7283-2.5333 1.1716-4.2116 1.1716-4.1484 0-7.6317-3.4516-7.6317-8.0116 0-4.5917 3.4833-8.0117 7.6317-8.0117 1.6783 0 3.0716.4433 4.2116 1.1717v-.8234zm-8.328 11.4634c1.14 0 2.2483-.3167 3.1983-1.425v-4.75c-.95-1.1084-2.0583-1.4567-3.1983-1.4567-2.09 0-3.61 1.71-3.61 3.8317 0 2.1216 1.52 3.8 3.61 3.8zm10.767-1.3934 4.56.0317c.221 1.33 1.33 1.9317 2.945 1.9317 1.361 0 2.185-.4117 2.185-1.0767 0-.5067-.475-.9183-1.489-1.0767l-3.103-.5383c-2.66-.4433-4.497-1.9317-4.497-4.6233 0-3.23 2.755-5.13 6.84-5.13 3.262 0 6.967 1.2666 7.189 5.32h-4.56c-.095-1.1717-1.172-1.71-2.597-1.71-1.33 0-1.932.5066-1.932 1.1083 0 .5067.38.9817 1.584 1.2033l2.881.475c2.882.5384 4.782 1.9317 4.782 4.655 0 3.5467-3.198 5.1934-7.188 5.1934-4.022 0-7.284-1.6784-7.6-5.7634zm24.826-.0316-2.153 2.3116v3.0084h-5.13v-22.4834h5.13v12.8884l5.352-5.7634h6.111l-5.826 6.27 6.333 9.0884h-6.143zm20.995-10.3234c4.149 0 7.632 3.42 7.632 7.98 0 4.5917-3.483 8.0434-7.632 8.0434-1.678 0-3.071-.4434-4.211-1.1717v.7917h-5.13v-22.4834h5.13v8.0117c1.14-.7283 2.533-1.1717 4.211-1.1717zm-1.013 11.8117c2.09 0 3.61-1.6783 3.61-3.8317 0-2.09-1.52-3.8-3.61-3.8-1.14 0-2.248.3484-3.198 1.4567v4.75c.95 1.1083 2.058 1.425 3.198 1.425zm19.063-11.875c4.845 0 8.329 3.3883 8.329 8.0117 0 4.6866-3.484 8.17-8.329 8.17s-8.328-3.4834-8.328-8.17c0-4.6234 3.483-8.0117 8.328-8.0117zm.032 11.7483c2.058 0 3.452-1.6466 3.452-3.705 0-1.995-1.394-3.61-3.452-3.61-2.09 0-3.483 1.615-3.483 3.61 0 2.0584 1.393 3.705 3.483 3.705zm18.747-11.7483c4.845 0 8.328 3.3883 8.328 8.0117 0 4.6866-3.483 8.17-8.328 8.17s-8.329-3.4834-8.329-8.17c0-4.6234 3.484-8.0117 8.329-8.0117zm.031 11.7483c2.059 0 3.452-1.6466 3.452-3.705 0-1.995-1.393-3.61-3.452-3.61-2.09 0-3.483 1.615-3.483 3.61 0 2.0584 1.393 3.705 3.483 3.705zm18.304-1.3616-2.154 2.3116v3.0084h-5.13v-22.4834h5.13v12.8884l5.352-5.7634h6.112l-5.827 6.27 6.333 9.0884h-6.143z" fill="#1c68f3"/><path d="m25 50c13.8071 0 25-11.1929 25-25s-11.1929-25-25-25-25 11.1929-25 25 11.1929 25 25 25z" fill="#1c68f3"/><path clip-rule="evenodd" d="m39.9999 19.1667v8.3333h-25v.0001h-1.0756c1.1384 5.0563 5.6564 8.8332 11.0566 8.8332 4.4645 0 8.3261-2.5814 10.1735-6.3331l4.8455-.0001v6.9999c0 1.6569-1.3432 3-3 3h-24c-1.6569 0-3.00002-1.3431-3.00002-3v-17.8333zm-7.7228 10.8334c-1.591 2.3261-4.2653 3.8525-7.2962 3.8525-3.0308 0-5.7052-1.5264-7.2961-3.8525zm-13.6939-8.8334c-2.351 0-4.2959 1.7385-4.6194 4h2.5572c.2812-.8704 1.0982-1.5 2.0622-1.5s1.781.6296 2.0622 1.5h2.5572c-.3235-2.2615-2.2684-4-4.6194-4zm12.8333 0c-2.3509 0-4.2959 1.7385-4.6194 4h2.5573c.2811-.8704 1.0981-1.5 2.0621-1.5.9641 0 1.7811.6296 2.0622 1.5h2.5573c-.3235-2.2615-2.2685-4-4.6195-4zm5.5834-11.1667c1.6568 0 3 1.3431 3 3v3.6667h-30.00002v-3.6667c0-1.6569 1.34312-3 3.00002-3z" fill="#fff" fill-rule="evenodd"/></svg>

<svg width="218" height="50" viewBox="0 0 218 50" fill="none" xmlns="http://www.w3.org/2000/svg">
<path d="M84.31 14.6333V36.1667H78.9583V25.3683L74.1767 32.7467V32.7783H71.2V32.7467L66.3867 25.305L66.4183 36.1667H61.0667V14.6333H65.025L72.6883 26.1283L80.32 14.6333H84.31ZM104.228 20.8083V36.1667H99.0983V35.3117C97.9583 36.04 96.565 36.4833 94.8867 36.4833C90.7383 36.4833 87.255 33.0317 87.255 28.4717C87.255 23.88 90.7383 20.46 94.8867 20.46C96.565 20.46 97.9583 20.9033 99.0983 21.6317V20.8083H104.228ZM95.9 32.2717C97.04 32.2717 98.1483 31.955 99.0983 30.8467V26.0967C98.1483 24.9883 97.04 24.64 95.9 24.64C93.81 24.64 92.29 26.35 92.29 28.4717C92.29 30.5933 93.81 32.2717 95.9 32.2717ZM106.667 30.8783L111.227 30.91C111.448 32.24 112.557 32.8417 114.172 32.8417C115.533 32.8417 116.357 32.43 116.357 31.765C116.357 31.2583 115.882 30.8467 114.868 30.6883L111.765 30.15C109.105 29.7067 107.268 28.2183 107.268 25.5267C107.268 22.2967 110.023 20.3967 114.108 20.3967C117.37 20.3967 121.075 21.6633 121.297 25.7167H116.737C116.642 24.545 115.565 24.0067 114.14 24.0067C112.81 24.0067 112.208 24.5133 112.208 25.115C112.208 25.6217 112.588 26.0967 113.792 26.3183L116.673 26.7933C119.555 27.3317 121.455 28.725 121.455 31.4483C121.455 34.995 118.257 36.6417 114.267 36.6417C110.245 36.6417 106.983 34.9633 106.667 30.8783ZM131.493 30.8467L129.34 33.1583V36.1667H124.21V13.6833H129.34V26.5717L134.692 20.8083H140.803L134.977 27.0783L141.31 36.1667H135.167L131.493 30.8467ZM152.488 20.5233C156.637 20.5233 160.12 23.9433 160.12 28.5033C160.12 33.095 156.637 36.5467 152.488 36.5467C150.81 36.5467 149.417 36.1033 148.277 35.375V36.1667H143.147V13.6833H148.277V21.695C149.417 20.9667 150.81 20.5233 152.488 20.5233ZM151.475 32.335C153.565 32.335 155.085 30.6567 155.085 28.5033C155.085 26.4133 153.565 24.7033 151.475 24.7033C150.335 24.7033 149.227 25.0517 148.277 26.16V30.91C149.227 32.0183 150.335 32.335 151.475 32.335ZM170.538 20.46C175.383 20.46 178.867 23.8483 178.867 28.4717C178.867 33.1583 175.383 36.6417 170.538 36.6417C165.693 36.6417 162.21 33.1583 162.21 28.4717C162.21 23.8483 165.693 20.46 170.538 20.46ZM170.57 32.2083C172.628 32.2083 174.022 30.5617 174.022 28.5033C174.022 26.5083 172.628 24.8933 170.57 24.8933C168.48 24.8933 167.087 26.5083 167.087 28.5033C167.087 30.5617 168.48 32.2083 170.57 32.2083ZM189.317 20.46C194.162 20.46 197.645 23.8483 197.645 28.4717C197.645 33.1583 194.162 36.6417 189.317 36.6417C184.472 36.6417 180.988 33.1583 180.988 28.4717C180.988 23.8483 184.472 20.46 189.317 20.46ZM189.348 32.2083C191.407 32.2083 192.8 30.5617 192.8 28.5033C192.8 26.5083 191.407 24.8933 189.348 24.8933C187.258 24.8933 185.865 26.5083 185.865 28.5033C185.865 30.5617 187.258 32.2083 189.348 32.2083ZM207.652 30.8467L205.498 33.1583V36.1667H200.368V13.6833H205.498V26.5717L210.85 20.8083H216.962L211.135 27.0783L217.468 36.1667H211.325L207.652 30.8467Z" fill="#1C68F3"/>
<path d="M25 50C38.8071 50 50 38.8071 50 25C50 11.1929 38.8071 0 25 0C11.1929 0 0 11.1929 0 25C0 38.8071 11.1929 50 25 50Z" fill="#1C68F3"/>
<path fill-rule="evenodd" clip-rule="evenodd" d="M39.9999 19.1667V27.5H14.9999V27.5001L13.9243 27.5001C15.0627 32.5564 19.5807 36.3333 24.9809 36.3333C29.4454 36.3333 33.307 33.7519 35.1544 30.0002L39.9999 30.0001V37C39.9999 38.6569 38.6567 40 36.9999 40H12.9999C11.343 40 9.99988 38.6569 9.99988 37V19.1667H39.9999ZM32.2771 30.0001C30.6861 32.3262 28.0118 33.8526 24.9809 33.8526C21.9501 33.8526 19.2757 32.3262 17.6848 30.0001H32.2771ZM18.5832 21.1667C16.2322 21.1667 14.2873 22.9052 13.9638 25.1667L16.521 25.1667C16.8022 24.2963 17.6192 23.6667 18.5832 23.6667C19.5472 23.6667 20.3642 24.2963 20.6454 25.1667L23.2026 25.1667C22.8791 22.9052 20.9342 21.1667 18.5832 21.1667ZM31.4165 21.1667C29.0656 21.1667 27.1206 22.9052 26.7971 25.1667L29.3544 25.1667C29.6355 24.2963 30.4525 23.6667 31.4165 23.6667C32.3806 23.6667 33.1976 24.2963 33.4787 25.1667L36.036 25.1667C35.7125 22.9052 33.7675 21.1667 31.4165 21.1667ZM36.9999 10C38.6567 10 39.9999 11.3431 39.9999 13V16.6667H9.99988V13C9.99988 11.3431 11.343 10 12.9999 10H36.9999Z" fill="white"/>
</svg>
